icon/lg/elasticpath-icon.svg

<?xml version="1.0" encoding="UTF-8"?>
<svg viewBox="0 0 256 270" version="1.1" xmlns="http://www.w3.org/2000/svg" preserveAspectRatio="xMidYMid" height="1em" width="1em">
  <g>
    <path d="M24.0553373,62.6821737 L70.8635091,16.1270817 C81.3199094,5.72860848 95.2165228,-5.68434189e-14 110.008879,-5.68434189e-14 C124.699502,-0.0391810993 138.795599,5.76776723 149.155649,16.1270817 C170.738857,37.5963791 170.738857,72.5266185 149.155649,93.9945239 L102.838736,140.061013 C98.4702378,144.417257 92.5361363,146.862028 86.3500664,146.854144 C76.9188754,146.854144 68.416682,141.202535 64.8077992,132.536246 C61.1989164,123.869958 63.1939971,113.894835 69.8627962,107.261973 L116.178309,61.1968764 L116.349159,61.0133141 C119.293502,57.7188984 119.283062,52.7817906 116.398981,49.5135489 L116.006508,49.0969938 C112.87272,45.9801497 107.915797,45.7174121 104.475282,48.4007184 L104.035393,48.7674297 L67.8543597,84.7191977 L58.2880766,94.2331321 C42.8483054,109.840435 42.6861624,134.794418 57.8018732,150.598031 L58.5253487,151.33577 C74.2006543,166.926702 99.4658131,167.166864 115.43656,152.05603 L116.264869,151.250931 L116.264869,151.250931 L116.950694,150.567911 L116.946689,150.562497 L161.49311,106.266671 C171.639252,96.1740354 185.030173,90.4809829 199.335538,90.1548282 L200.63848,90.1399895 C215.432236,90.1399895 229.327449,95.8681979 239.785249,106.266671 C250.200878,116.570707 256.039394,130.59059 256,145.201784 C256,159.481445 250.574065,172.921841 240.695537,183.209055 L239.785249,184.135505 L171.812349,251.740894 C161.452068,262.099697 147.356,267.906133 132.66558,267.866183 C117.873223,267.866183 103.978009,262.139367 93.5202094,251.740894 C91.8691087,250.095262 90.3232618,248.349169 88.8915162,246.512925 L87.8392392,245.119001 L69.8543986,263.007994 C60.7062632,271.810294 46.1512724,271.690158 37.1512784,262.738064 C28.3427738,253.976441 28.0408384,239.923177 36.3298865,230.799657 L36.8826575,230.211739 L61.4807118,205.746193 C48.0603386,201.631249 35.7649095,194.297661 25.5487089,184.134113 C25.2631908,183.851067 24.9874699,183.562453 24.7215462,183.26827 C-7.50077359,150.341417 -8.22978832,98.0919327 22.5689588,64.308792 C23.0324793,63.7488012 23.5286761,63.2060763 24.0553373,62.6821737 Z M206.63051,139.232407 C203.496722,136.115563 198.539799,135.852825 195.099284,138.536132 L194.659395,138.902843 L149.343523,183.938812 L126.497549,206.664139 C124.293424,208.856098 123.432482,212.051081 124.239031,215.045568 C125.04558,218.040056 127.397087,220.379114 130.407761,221.181642 C133.230268,221.934012 136.230117,221.228758 138.410215,219.331543 L138.83501,218.936286 L206.977806,151.157132 L206.977806,151.157132 C210.04601,147.711508 209.900549,142.484766 206.63051,139.232407 Z" fill="#0033CC"/>
  </g>
</svg>

<svg width="256" height="270" xmlns="http://www.w3.org/2000/svg" preserveAspectRatio="xMidYMid"><path d="m24.055 62.682 46.809-46.555C81.32 5.73 95.217 0 110.009 0c14.69-.04 28.787 5.768 39.147 16.127 21.583 21.47 21.583 56.4 0 77.868l-46.317 46.066a23.31 23.31 0 0 1-16.489 6.793c-9.431 0-17.933-5.651-21.542-14.318a23.101 23.101 0 0 1 5.055-25.274l46.315-46.065.171-.184a8.656 8.656 0 0 0 .05-11.5l-.392-.416c-3.134-3.117-8.091-3.38-11.532-.696l-.44.366-36.18 35.952-9.567 9.514c-15.44 15.607-15.602 40.561-.486 56.365l.723.738c15.676 15.59 40.94 15.83 56.912.72l.828-.805.686-.683-.004-.006 44.546-44.295c10.146-10.093 23.537-15.786 37.843-16.112l1.302-.015c14.794 0 28.69 5.728 39.147 16.127A54.56 54.56 0 0 1 256 145.202c0 14.28-5.426 27.72-15.304 38.007l-.91.927-67.974 67.605c-10.36 10.359-24.456 16.165-39.146 16.125-14.793 0-28.688-5.727-39.146-16.125a55.983 55.983 0 0 1-4.628-5.228l-1.053-1.394-17.985 17.889c-9.148 8.802-23.703 8.682-32.703-.27-8.808-8.762-9.11-22.815-.821-31.938l.553-.588 24.598-24.466c-13.42-4.115-25.716-11.448-35.932-21.612a21.867 21.867 0 0 1-.827-.866C-7.501 150.341-8.23 98.092 22.569 64.308c.463-.56.96-1.102 1.486-1.626Zm182.576 76.55c-3.134-3.116-8.091-3.38-11.532-.696l-.44.367-45.315 45.036-22.846 22.725a8.645 8.645 0 0 0-2.259 8.382 8.7 8.7 0 0 0 6.169 6.136 8.76 8.76 0 0 0 8.002-1.85l.425-.396 68.143-67.779c3.068-3.445 2.923-8.672-.347-11.925Z" fill="#03C"/></svg>
